X: 118106
Q: "Reel."
M: C
L: 1/8
K: Am
ue |\
vc>uc c/c/c ue2dc | BGdG BcdB |\
c>c c/c/c e2dc | BGdB cA A :|\
ug |\
ecgc aceg | BGdG eGBd |
ecgc aceg | ecdB cAAg |\
ecgc aceg | BGdG eGdB |\



